X:1
T:Partition sans titre
C:Compositeur / Arrangeur
L:1/8
M:4/4
I:linebreak $
K:Bb
V:1 treble nm="Violon" snm="Vln."
V:1
"Bb" B,2 DF B2 Bd |"F" ccAc"Bb" BBdf | b3 b"F" a2 fa |"E" gg=eg"F" f2 df |"E" =eec_e ddBd | %5
"F7" cBAG FDEC |"Bb" DB,DF B2 Bd |"F" c2 Ac"Bb" BBdf | bfdf"Eb" gBbB |"F" a2 fa gf=ec |1 %10
[M:2/4]"Bb" B2 FD :|2"Bb" B2 dc |:[M:4/4]"Gm" BGGG DGBG | dGBG"F" FcAF | cFAF CFAF | %15
"F" cFAc"Gm" BAGA | BABc dBBA |1 BG"F"AF"Gm" G2 dc :|2 BG"F"AF"Gm" G2 FD |] %19
